X:1
T:Title
%%score { 1 | 2 }
L:1/8
M:4/4
K:Ab
V:1 treble nm="Grand Piano"
V:2 bass 
V:1
 z4 z2[Q:1/4=100] E>E | A3 E C2 E2 | A2 A2 z2 A>B | c3 B A2 B2 | c6 cc | [Bd]2 [Ac]2 [GB]2 [FA]2 | %6
 [EG]2 [DF]2 [FA]3 F | E2 A2 A2 G2 | [CA]6 z2 | E2 F>E B2 E2 | [CE]2 [DF]>[CE] [Ec]2 [EA]2 | %11
 [Fd]2 [Fd]>[Fd] [Ec]2 c2 | B2 A2 [Ge]4 | c2 [Ec]>[Ec] [Fd]2 [Ec]2 | [DF]2 [DF]>[EG] [FA]2 [DF]2 | %15
 [CE]2 [CA]>[DB] [Ec]2 [FA]F |[M:7/8] EA G2 [CA]3 |] %17
V:2
 z4 z2 E,>E, | A,3 E, C,2 E,2 | A,2 A,2 z2 [C,A,C]>[E,B,E] | [A,CA]3 [E,B,E] [C,A,C]2 [E,B,E]2 | %4
 [A,CA]6 [A,EA][A,EA] | [G,E]2 [A,E]2[K:bass] [E,D]2 [F,C]2 | [D,D]2 [D,A,]2 [D,A,]3 [D,A,D] | %7
 [E,A,C]2 [E,CE]2 [E,CE]2 [E,B,D]2 | [A,,A,]6 z2 | [E,G,D]2 [E,G,D]>[E,G,D] [E,G,D]2 [E,G,D]2 | %10
 [A,,A,]2 [A,,A,]>[A,,A,] [A,,A,]2 [C,A,]2 | [D,A,]2 [D,A,]>[D,A,] [A,,A,]2 [A,E]2 | %12
 [G,B,E]2 [F,B,F]2 [E,B,]4 | [A,A]2 [A,,A,]>[A,,A,] [A,,A,]2 [A,,A,]2 | %14
 [D,A,]2 [D,A,]>[D,A,] [D,A,]2 [D,A,]2 | [A,,A,]2 [A,,A,]>[A,,A,] [A,,A,]2 [D,A,][D,A,D] | %16
[M:7/8] [E,A,C][E,CE] [E,B,D]2 [A,,A,]3 |] %17

